!!!!SEGMENT: pl-cz--iii-257--008_gotschalk-filip--requiem-in-b-benedictus.krn
!!!cenid: 18xx:109
!!!COM: Gotschalk, Filip
!!!COM-rismid: pe30020320
!!!CDT: 1760-1809
!!!CNT:
!!!OPR: Requiem in B
!!!OTL: Benedictus
!!!OMV: 008
!!!PDT:
!!!AGN: Sacred; Requiem
!!!SMS-siglum: PL-CZ
!!!SMS-shelfmark: III-257
!!!SMS-shelfwork: 001-008 M
!!!NIFC-rismid:
!!!URL-scan: http://repozytorium.nifc.pl/skany/pl-cz-nut--iii-257
!!!ONB-nifc:
**kern	**fb	**dynam	**kern	**text	**kern	**text	**kern	**text	**kern	**text	**kern	**dynam	**kern	**dynam	**kern	**dynam	**kern	**dynam	**kern	**dynam	**kern	**dynam
*part11	*	*part11	*part10	*part10	*part9	*part9	*part8	*part8	*part7	*part7	*part6	*part6	*part5	*part5	*part4	*part4	*part3	*part3	*part2	*part2	*part1	*part1
*staff11	*	*	*staff10	*staff10	*staff9	*staff9	*staff8	*staff8	*staff7	*staff7	*staff6	*	*staff5	*	*staff4	*	*staff3	*	*staff2	*	*staff1	*
*I"Organo	*	*	*I"Basso	*	*I"Tenore	*	*I"Alto	*	*I"Canto	*	*I"Violino Secondo	*	*I"Violino Primo	*	*I"Cornu Secondo in B	*	*I"Cornu Primo in B	*	*I"Clarinetto Secondo	*	*I"Clarinetto Primo	*
*I'Org	*	*	*I'B	*	*I'T	*	*I'A	*	*I'C	*	*I'Vln II	*	*I'Vln I	*	*I'Cor II	*	*I'Cor I	*	*I'Cl II	*	*I'Cl I	*
*clefF4	*	*	*clefF4	*	*clefC4	*	*clefC3	*	*clefC1	*	*clefG2	*	*clefG2	*	*clefG2	*	*clefG2	*	*clefG2	*	*clefG2	*
*	*	*	*	*	*	*	*	*	*	*	*	*	*	*	*ITrd1c2	*	*ITrd1c2	*	*	*	*	*
*k[b-e-]	*	*	*k[b-e-]	*	*k[b-e-]	*	*k[b-e-]	*	*k[b-e-]	*	*k[b-e-]	*	*k[b-e-]	*	*k[b-e-]	*	*k[b-e-]	*	*k[b-e-]	*	*k[b-e-]	*
*B-:	*	*	*B-:	*	*B-:	*	*B-:	*	*B-:	*	*B-:	*	*B-:	*	*	*	*	*	*B-:	*	*B-:	*
*M2/4	*	*	*M2/4	*	*M2/4	*	*M2/4	*	*M2/4	*	*M2/4	*	*M2/4	*	*M2/4	*	*M2/4	*	*M2/4	*	*M2/4	*
=1	=1	=1	=1	=1	=1	=1	=1	=1	=1	=1	=1	=1	=1	=1	=1	=1	=1	=1	=1	=1	=1	=1
!	!	!	!LO:TX:a:B:t=Adagio	!	!	!	!	!	!	!	!	!	!	!	!	!	!	!	!	!	!	!
!LO:TX:a:B:t=Andante	!	!	!LO:TX:a:t=Solo	!	!LO:TX:a:B:t=Andante	!	!LO:TX:a:B:t=Andante	!	!	!	!LO:TX:a:B:t=Andante	!	!LO:TX:a:B:t=Andante	!	!	!	!LO:TX:a:B:t=Andante	!	!LO:TX:a:B:t=Andante	!	!LO:TX:a:B:t=Andante	!
*	*	*	*	*	*	*	*	*	*	*	*	*	*^	*	*	*	*	*	*	*	*	*
8.B-`L	.	p	8.B-	Be-	4r	.	4r	.	4r	.	4r	.	8.bb-L\	4r	.	4r	.	4r	.	4r	.	4r	.
16A`Jk	.	.	16A	-ne-	.	.	.	.	.	.	.	.	16aaJk	.	.	.	.	.	.	.	.	.	.
8B-`L\	.	.	8B-	-dic-	8r	.	8r	.	8r	.	8r	.	8bb-L\	8r	.	8.r	.	8.r	.	8r	.	8r	.
8BB-`J/	.	.	8BB-	-tus	16r	.	16r	.	16r	.	16r	.	8b-J	16r	.	.	.	.	.	16r	.	16r	.
!	!	!	!	!	!	!	!	!	!	!	!	!	!	!LO:N:vis=8	!	!	!	!	!	!	!	!	!
.	.	.	.	.	16B-	qui	16f	Qui	16dd	qui	16f	p	.	16dd	p	16f	p	16dd	p	16f	p	16dd	p
*	*	*	*	*	*	*	*	*	*	*	*	*	*v	*v	*	*	*	*	*	*	*	*	*
=2	=2	=2	=2	=2	=2	=2	=2	=2	=2	=2	=2	=2	=2	=2	=2	=2	=2	=2	=2	=2	=2	=2
!	!	!	!	!	!	!	!	!	!LO:TX:a:t=Solo	!	!	!	!	!	!	!	!	!	!	!	!	!
8FL	6 8	.	2r	.	8B-L\	ve-	(>8fL	ve-	16ddLL	ve-	(<8fL	.	(>8ddL	.	(<4f	.	(>8ddL	.	(<8fL	.	(>8ddL	.
.	.	.	.	.	.	.	.	.	16ee-	.	.	.	.	.	.	.	.	.	.	.	.	.
8FJ	5 7	.	.	.	8FJ/	.	8e-J)	.	16cc	.	8e-)	.	8cc)	.	.	.	8ccJ)	.	8e-)	.	8cc	.
.	.	.	.	.	.	.	.	.	16ddJJ	.	.	.	.	.	.	.	.	.	.	.	.	.
16B-LL\	.	.	.	.	8B-	-nit	8d	-nit,	8b-	-nit,	8dJ	.	8b-`J	.	8d)	.	8b-`	.	8dJ	.	8b-J)	.
16BB-/	.	.	.	.	.	.	.	.	.	.	.	.	.	.	.	.	.	.	.	.	.	.
16D/	.	.	.	.	8r	.	8r	.	8r	.	8r	.	8r	.	8r	.	8r	.	8r	.	8r	.
16FJJ/	.	.	.	.	.	.	.	.	.	.	.	.	.	.	.	.	.	.	.	.	.	.
!	!	!	!	!	!	!	!LO:LB:g=original	!	!LO:LB:g=original	!	!	!	!	!	!	!	!	!	!	!	!	!
=3	=3	=3	=3	=3	=3	=3	=3	=3	=3	=3	=3	=3	=3	=3	=3	=3	=3	=3	=3	=3	=3	=3
*	*	*	*	*	*	*	*	*	*	*	*	*	*^	*	*	*	*	*	*	*	*	*
8.B-`L	.	.	8.B-	be-	4r	.	4r	.	4r	.	4r	.	8.bb-L\	4r	.	4r	.	4r	.	4r	.	4r	.
16A`Jk	.	.	48ALLL	.	.	.	.	.	.	.	.	.	16aaJk	.	.	.	.	.	.	.	.	.	.
.	.	.	48B-	.	.	.	.	.	.	.	.	.	.	.	.	.	.	.	.	.	.	.	.
.	.	.	48cJJJ	.	.	.	.	.	.	.	.	.	.	.	.	.	.	.	.	.	.	.	.
8B-`L\	.	.	8B-	.	8r	.	8r	.	8r	.	8r	.	8bb-L\	8r	.	8.r	.	8.r	.	8r	.	8r	.
8BB-`J/	.	.	16BB-	.	16r	.	16r	.	16r	.	16r	.	8ddJ	16r	.	.	.	.	.	16r	.	16r	.
.	.	.	16BB-	qui	16B-	qui	16dd	Qui	16ff	qui	16dd	.	.	16ff	.	16dd	.	16ff	.	16dd	.	16ff	.
*	*	*	*	*	*	*	*	*	*	*	*	*	*v	*v	*	*	*	*	*	*	*	*	*
!LO:LB:g=original	!	!	!LO:LB:g=original	!	!	!	!	!	!	!	!LO:LB:g=original	!	!	!	!	!	!	!	!	!	!	!
=4	=4	=4	=4	=4	=4	=4	=4	=4	=4	=4	=4	=4	=4	=4	=4	=4	=4	=4	=4	=4	=4	=4
8FL	8 6	.	2r	.	8B-L	ve-	(>8ddL	ve-	16ffLL	ve-	(>8ddL	.	(>8ffL	.	(>8ddL	.	(>8ffL	.	(>8ddL	.	(>8ffL	.
.	.	.	.	.	.	.	.	.	16gg	.	.	.	.	.	.	.	.	.	.	.	.	.
8FJ	7 5	.	.	.	8AJ	.	8ccJ)	.	16ee-	.	8cc	.	8ee-)	.	8cc)	.	8ee-	.	8cc)	.	8ee-)	.
.	.	.	.	.	.	.	.	.	16ffJJ	.	.	.	.	.	.	.	.	.	.	.	.	.
8B-L\	.	.	.	.	8B-	-nit	8b-	-nit	8dd	-nit	8b-J)	.	8dd`J	.	8b-J	.	8ddJ)	.	8b-`J	.	8dd`J	.
8BB-J/	.	.	.	.	8r	.	8b-	in	8b-	qui	8r	.	8r	.	8r	.	8r	.	8r	.	8r	.
!	!	!	!	!	!	!	!	!	!	!	!	!	!LO:LB:g=original	!	!LO:LB:g=original	!	!LO:LB:g=original	!	!	!	!	!
=5	=5	=5	=5	=5	=5	=5	=5	=5	=5	=5	=5	=5	=5	=5	=5	=5	=5	=5	=5	=5	=5	=5
8E-L	.	.	4r	.	4G	ve-	4b-	No-	8.ee-L	ve-	4r	.	4r	.	2r	.	2r	.	2r	.	2r	.
8E-	.	.	.	.	.	.	.	.	.	.	.	.	.	.	.	.	.	.	.	.	.	.
.	.	.	.	.	.	.	.	.	16ffJk	.	.	.	.	.	.	.	.	.	.	.	.	.
8D	6	.	8r	.	8e-	-nit	8b-	-mi-	8gg	-nit	8r	.	8r	.	.	.	.	.	.	.	.	.
8DJ	.	.	8B-	in	8d	in	8b-	-ne	8ff	in	8dd	.	8ff	.	.	.	.	.	.	.	.	.
!	!	!	!	!	!LO:LB:g=original	!	!	!	!	!	!	!	!	!	!	!	!	!	!	!	!	!
=6	=6	=6	=6	=6	=6	=6	=6	=6	=6	=6	=6	=6	=6	=6	=6	=6	=6	=6	=6	=6	=6	=6
8r	.	.	4B-	no-	4d	no-	4b-	No-	4ff	No-	4dd	.	4ff	.	2r	.	2r	.	2r	.	2r	.
8B-L	.	.	.	.	.	.	.	.	.	.	.	.	.	.	.	.	.	.	.	.	.	.
8A	6 5	.	8A	-mi-	8c	-mi-	8f	-mi-	8ee-	-mi-	8ccL	.	8ee-L	.	.	.	.	.	.	.	.	.
8B-J	.	.	8B-	-ne	8c	-ne	8f	-ne	8dd	-ne	8b-J	.	8ddJ	.	.	.	.	.	.	.	.	.
=7	=7	=7	=7	=7	=7	=7	=7	=7	=7	=7	=7	=7	=7	=7	=7	=7	=7	=7	=7	=7	=7	=7
8r	.	.	16F	Do-	16B-	Do-	16f	Do-	16dd	Do-	16b-LL\	.	16ddLL	.	8r	.	8r	.	8r	.	8r	.
.	.	.	16F	-mi-	16A	-mi-	16f	-mi-	16cc	-mi-	16aJ	.	16ccJ	.	.	.	.	.	.	.	.	.
16FLL	.	.	8F	-ni	8A	-ni	8f	-ni	8cc	-ni	8aJ	.	8ccJ	.	16fLL	.	16ccLL	.	16aLL	.	16ccLL	.
16FJJ	.	.	.	.	.	.	.	.	.	.	.	.	.	.	16fJJ	.	16ccJJ	.	16aJJ	.	16ccJJ	.
!	!	!	!	!	!	!	!	!	!LO:LB:g=original	!	!	!	!	!	!	!	!	!	!	!	!	!
4F	.	.	4r	.	4r	.	8r	.	8r	.	8r	.	8r	.	8f	.	8cc	.	8a	.	8cc	.
.	.	.	.	.	.	.	8f	in	8dd	in	8f	.	8dd	.	8r	.	8r	.	8r	.	8r	.
!	!	!	!	!	!	!	!LO:LB:g=original	!	!	!	!	!	!	!	!	!	!	!	!	!	!	!
=8	=8	=8	=8	=8	=8	=8	=8	=8	=8	=8	=8	=8	=8	=8	=8	=8	=8	=8	=8	=8	=8	=8
8r	.	.	2r	.	2r	.	4f	No-	4dd	no-	4f	.	4dd	.	2r	.	2r	.	2r	.	2r	.
8B-L	.	.	.	.	.	.	.	.	.	.	.	.	.	.	.	.	.	.	.	.	.	.
8E-	6	.	.	.	.	.	8e-	-mi-	8cc	-mi-	8e-L	.	8ccL	.	.	.	.	.	.	.	.	.
8EnJ	5 7	.	.	.	.	.	8d	-ne	8b-	-ne	8dJ	.	8b-J	.	.	.	.	.	.	.	.	.
!	!	!	!	!	!	!	!	!	!	!	!	!	!	!	!	!	!	!	!LO:LB:g=original	!	!	!
=9	=9	=9	=9	=9	=9	=9	=9	=9	=9	=9	=9	=9	=9	=9	=9	=9	=9	=9	=9	=9	=9	=9
8r	.	.	2r	.	2r	.	16d	Do-	16b-	Do-	16dLL	.	16b-LL\	.	8r	.	8r	.	8r	.	8r	.
.	.	.	.	.	.	.	16c	-mi-	16a	-mi-	16cJ	.	16aJ	.	.	.	.	.	.	.	.	.
16FLL	.	.	.	.	.	.	8c	-ni	8a	-ni.	8cJ	.	8aJ	.	16fLL	.	16ccLL	.	16ccLL	.	16aaLL	.
16EnJJ	.	.	.	.	.	.	.	.	.	.	.	.	.	.	16fJJ	.	16ccJJ	.	16ccJJ	.	16aaJJ	.
16FLL	.	.	.	.	.	.	4r	.	4r	.	4r	.	4r	.	4f	.	8cc	.	8cc	.	8aa	.
16A	.	.	.	.	.	.	.	.	.	.	.	.	.	.	.	.	.	.	.	.	.	.
16c	.	.	.	.	.	.	.	.	.	.	.	.	.	.	.	.	8r	.	8r	.	8r	.
16AJJ	.	.	.	.	.	.	.	.	.	.	.	.	.	.	.	.	.	.	.	.	.	.
!	!	!	!	!	!	!	!	!	!	!	!	!	!	!	!	!	!	!	!	!	!LO:LB:g=original	!
=10	=10	=10	=10	=10	=10	=10	=10	=10	=10	=10	=10	=10	=10	=10	=10	=10	=10	=10	=10	=10	=10	=10
8r	.	.	2r	.	(>4c	Be-	2r	.	2r	.	2r	.	2r	.	2r	.	2r	.	2r	.	2r	.
8FL	.	.	.	.	.	.	.	.	.	.	.	.	.	.	.	.	.	.	.	.	.	.
8F	.	.	.	.	16cLL)	.	.	.	.	.	.	.	.	.	.	.	.	.	.	.	.	.
.	.	.	.	.	16AJJ	.	.	.	.	.	.	.	.	.	.	.	.	.	.	.	.	.
8FJ	.	.	.	.	16GLL	-ne-	.	.	.	.	.	.	.	.	.	.	.	.	.	.	.	.
.	.	.	.	.	16FJJ	.	.	.	.	.	.	.	.	.	.	.	.	.	.	.	.	.
!LO:LB:g=original	!	!	!	!	!	!	!	!	!	!	!LO:LB:g=original	!	!	!	!	!	!	!	!	!	!	!
=11	=11	=11	=11	=11	=11	=11	=11	=11	=11	=11	=11	=11	=11	=11	=11	=11	=11	=11	=11	=11	=11	=11
8r	.	.	8.c	Be-	16FLL	-Dic-	4g	Be-	4b-	Be-	4g	.	4b-	.	2r	.	2r	.	2r	.	2r	.
.	.	.	.	.	16EnJJ	.	.	.	.	.	.	.	.	.	.	.	.	.	.	.	.	.
8CL	.	.	.	.	8E	-tus	.	.	.	.	.	.	.	.	.	.	.	.	.	.	.	.
.	.	.	16c	-ne-	.	.	.	.	.	.	.	.	.	.	.	.	.	.	.	.	.	.
8C	.	.	8c	-dic-	4r	.	(>16gLL	.	16b-LL	.	16gLL	.	16b-LL	.	.	.	.	.	.	.	.	.
.	.	.	.	.	.	.	16b-JJ)	.	16ddJJ	.	16b-	.	16dd	.	.	.	.	.	.	.	.	.
8CJ	.	.	8C	-tus	.	.	16aLL	-ne-	16ccLL	-ne-	16a	.	16cc	.	.	.	.	.	.	.	.	.
.	.	.	.	.	.	.	16gJJ	.	16b-JJ	.	16gJJ	.	16b-JJ	.	.	.	.	.	.	.	.	.
!	!	!	!	!	!LO:LB:g=original	!	!	!	!	!	!	!	!LO:LB:g=original	!	!	!	!	!	!	!	!	!
=12	=12	=12	=12	=12	=12	=12	=12	=12	=12	=12	=12	=12	=12	=12	=12	=12	=12	=12	=12	=12	=12	=12
8r	.	.	2r	.	4c	qui	16gLL	-dic-	16b-LL	-dic-	16gLL	.	16b-LL\	.	2r	.	2r	.	2r	.	2r	.
.	.	.	.	.	.	.	16fJJ	.	16aJJ	.	16fJ	.	16aJJ	.	.	.	.	.	.	.	.	.
8FL	.	.	.	.	.	.	8f	-tus	8a	-tus	8fJ	.	8a\	.	.	.	.	.	.	.	.	.
8F	.	.	.	.	16cLL	.	4r	.	4r	.	4r	.	4r	.	.	.	.	.	.	.	.	.
.	.	.	.	.	16AJJ	.	.	.	.	.	.	.	.	.	.	.	.	.	.	.	.	.
8FJ	.	.	.	.	16GLL	.	.	.	.	.	.	.	.	.	.	.	.	.	.	.	.	.
.	.	.	.	.	16FnJJ	.	.	.	.	.	.	.	.	.	.	.	.	.	.	.	.	.
!	!	!	!	!	!	!	!LO:LB:g=original	!	!LO:LB:g=original	!	!	!	!	!	!	!	!	!	!	!	!	!
=13	=13	=13	=13	=13	=13	=13	=13	=13	=13	=13	=13	=13	=13	=13	=13	=13	=13	=13	=13	=13	=13	=13
8r	.	.	8r	.	16FLL	ve-	4g	be-	(>4b-	qui	4g	.	4b-	.	2r	.	2r	.	2r	.	2r	.
.	.	.	.	.	16EnJJ	.	.	.	.	.	.	.	.	.	.	.	.	.	.	.	.	.
8cL\	7_ n_	.	8c	qui	8E	-nit	.	.	.	.	.	.	.	.	.	.	.	.	.	.	.	.
8c\	x	.	8c	ve-	4r	.	16gLL	.	16b-LL	.	16gLL	.	16b-LL	.	.	.	.	.	.	.	.	.
.	.	.	.	.	.	.	16b-	.	16dd	.	16b-	.	16dd	.	.	.	.	.	.	.	.	.
8CJ/	.	.	8C	-nit	.	.	16a	-ne-	16cc	.	16a	.	16cc	.	.	.	.	.	.	.	.	.
.	.	.	.	.	.	.	16gJJ	.	16b-JJ)	.	16gJJ	.	16b-JJ	.	.	.	.	.	.	.	.	.
!	!	!	!LO:LB:g=original	!	!	!	!	!	!	!	!	!	!	!	!	!	!	!	!	!	!	!
=14	=14	=14	=14	=14	=14	=14	=14	=14	=14	=14	=14	=14	=14	=14	=14	=14	=14	=14	=14	=14	=14	=14
8r	.	.	8r	.	2r	.	16gLL	-dic-	16b-LL	ve-	16gLL	.	16b-LL\	.	2r	.	2r	.	2r	.	2r	.
.	.	.	.	.	.	.	16fJJ	.	16aJJ	.	16fJ	.	16aJJ	.	.	.	.	.	.	.	.	.
16FLL	.	.	16FLL	qui	.	.	8f	-tus.	8a	-nit	8fJ	.	8a\	.	.	.	.	.	.	.	.	.
16EnJJ	.	.	16EnJJ	.	.	.	.	.	.	.	.	.	.	.	.	.	.	.	.	.	.	.
8FL	.	.	8F	ve-	.	.	4r	.	8r	.	8r	.	8r	.	.	.	.	.	.	.	.	.
8FJ	.	.	8F	-nit	.	.	.	.	16ccLL	in	16aLL\	.	16ccLL	.	.	.	.	.	.	.	.	.
.	.	.	.	.	.	.	.	.	16ddJJ	.	16b-JJ	.	16ddJJ	.	.	.	.	.	.	.	.	.
=15	=15	=15	=15	=15	=15	=15	=15	=15	=15	=15	=15	=15	=15	=15	=15	=15	=15	=15	=15	=15	=15	=15
8r	.	.	8r	.	4c	No-	8r	.	4ee-	No-	4cc	.	4ee-	.	2r	.	2r	.	2r	.	2r	.
8F#XL	7_ 3_	.	8F#X	in	.	.	8a	in	.	.	.	.	.	.	.	.	.	.	.	.	.	.
8F#	6	.	16F#	no-	8B-	-mi-	8a	no-	8dd	-mi-	8b-L\	.	8ddL	.	.	.	.	.	.	.	.	.
.	.	.	16F#	-mi-	.	.	.	.	.	.	.	.	.	.	.	.	.	.	.	.	.	.
!LO:TX:a:t=problem:niewyraźny znak przy ddźwięku	!	!	!LO:TX:a:t=problem:niewyraźny znak przy dźwięku	!	!	!	!	!	!	!	!	!	!	!	!	!	!	!	!	!	!	!
8F#J	5	.	8F#	-ne	8A	-ne	16a	-mi-	8cc	-ne	8aJ	.	8ccJ	.	.	.	.	.	.	.	.	.
.	.	.	.	.	.	.	16a	-ne	.	.	.	.	.	.	.	.	.	.	.	.	.	.
=16	=16	=16	=16	=16	=16	=16	=16	=16	=16	=16	=16	=16	=16	=16	=16	=16	=16	=16	=16	=16	=16	=16
8GL\	.	.	16G	Do-	8.G	Do-	8.g	Do-	8.b-	Do-	8.gL	.	8.b-L	.	2r	.	2r	.	2r	.	2r	.
.	.	.	16G	-mi-	.	.	.	.	.	.	.	.	.	.	.	.	.	.	.	.	.	.
8D\	.	.	8G	-ni	.	.	.	.	.	.	.	.	.	.	.	.	.	.	.	.	.	.
.	.	.	.	.	16A/	-mi-	16a	-mi-	16cc	-mi-	16aJk	.	16ccJk	.	.	.	.	.	.	.	.	.
8GGJ/	.	.	4r	.	8B-	-ni	8b-	-ni	8dd	-ni	8b-L	.	8ddL	.	.	.	.	.	.	.	.	.
8r	.	.	.	.	8r	.	8r	.	16b-LL	in	16gL	.	16b-L	.	.	.	.	.	.	.	.	.
.	.	.	.	.	.	.	.	.	16ccJJ	.	16aJJ	.	16ccJJ	.	.	.	.	.	.	.	.	.
!	!	!	!	!	!	!	!	!	!LO:PB:g=original	!	!LO:LB:g=original	!	!	!	!	!	!	!	!	!	!	!
=17	=17	=17	=17	=17	=17	=17	=17	=17	=17	=17	=17	=17	=17	=17	=17	=17	=17	=17	=17	=17	=17	=17
8r	.	.	8r	.	4B-	No-	8r	.	4dd	no-	4b-/	.	4dd	.	2r	.	2r	.	2r	.	2r	.
8EnL	7 3	.	8En	in	.	.	8g	in	.	.	.	.	.	.	.	.	.	.	.	.	.	.
8E	6|	.	16E	no-	8A/	-mi-	8g	no-	8cc	-mi-	8aL	.	8ccL	.	.	.	.	.	.	.	.	.
.	.	.	16E	-mi-	.	.	.	.	.	.	.	.	.	.	.	.	.	.	.	.	.	.
!	!	!	!	!	!	!	!LO:LB:g=original	!	!	!	!	!	!	!	!	!	!	!	!	!	!	!
8EJ	5 3	.	8E	-ne	8G	-ne	16g	-mi-	8b-	-ne	8gJ	.	8b-J	.	.	.	.	.	.	.	.	.
.	.	.	.	.	.	.	16g	-ne	.	.	.	.	.	.	.	.	.	.	.	.	.	.
!LO:LB:g=original	!	!	!LO:LB:g=original	!	!LO:LB:g=original	!	!	!	!	!	!	!	!	!	!	!	!	!	!	!	!	!
=18	=18	=18	=18	=18	=18	=18	=18	=18	=18	=18	=18	=18	=18	=18	=18	=18	=18	=18	=18	=18	=18	=18
8FL\	.	.	16F	Do-	8.F	Do-	8.f	Do-	8.a	Do-	8.fL	.	8.aL\	.	2r	.	2r	.	2r	.	2r	.
.	.	.	16F	-mi-	.	.	.	.	.	.	.	.	.	.	.	.	.	.	.	.	.	.
8C/	.	.	8F	-ni	.	.	.	.	.	.	.	.	.	.	.	.	.	.	.	.	.	.
.	.	.	.	.	16G	-mi-	16g	-mi-	16b-	-mi-	16gJk	.	16b-Jk	.	.	.	.	.	.	.	.	.
8FFJ/	.	.	4r	.	8A/	-ni.	8a	-ni	8cc	-ni	8a	.	8cc	.	.	.	.	.	.	.	.	.
8r	.	.	.	.	8r	.	8f	in	16fLL	in	8r	.	8r	.	.	.	.	.	.	.	.	.
.	.	.	.	.	.	.	.	.	16gJJ	.	.	.	.	.	.	.	.	.	.	.	.	.
!	!	!	!	!	!	!	!	!	!	!	!	!	!LO:LB:g=original	!	!	!	!	!	!	!	!	!
=19	=19	=19	=19	=19	=19	=19	=19	=19	=19	=19	=19	=19	=19	=19	=19	=19	=19	=19	=19	=19	=19	=19
!	!	!	!	!	!	!	!	!	!	!	!LO:TX:a:t=2 pausen.	!	!	!	!	!	!	!	!	!	!	!
8r	.	.	2r	.	2r	.	16fLL	no-	16aLL	no-	2r	.	2r	.	2r	.	2r	.	2r	.	2r	.
.	.	.	.	.	.	.	16gJJ	.	16b-JJ	.	.	.	.	.	.	.	.	.	.	.	.	.
8FL	.	.	.	.	.	.	16a	-mi-	16cc	-mi-	.	.	.	.	.	.	.	.	.	.	.	.
.	.	.	.	.	.	.	16b-	-ne	16dd	-ne	.	.	.	.	.	.	.	.	.	.	.	.
8A	6 5	.	.	.	.	.	8cc	Do-	16ee-LL	Do-	.	.	.	.	.	.	.	.	.	.	.	.
.	.	.	.	.	.	.	.	.	16ccJJ	.	.	.	.	.	.	.	.	.	.	.	.	.
8B-J	.	.	.	.	.	.	8b-	-mi-	16ddLL	-mi-	.	.	.	.	.	.	.	.	.	.	.	.
.	.	.	.	.	.	.	.	.	16b-JJ	.	.	.	.	.	.	.	.	.	.	.	.	.
=20	=20	=20	=20	=20	=20	=20	=20	=20	=20	=20	=20	=20	=20	=20	=20	=20	=20	=20	=20	=20	=20	=20
8FL	.	.	2r	.	2r	.	4a	-ni,	4cc	-ni.	2r	.	2r	.	2r	.	2r	.	2r	.	2r	.
16FL	.	.	.	.	.	.	.	.	.	.	.	.	.	.	.	.	.	.	.	.	.	.
16GJJ	.	.	.	.	.	.	.	.	.	.	.	.	.	.	.	.	.	.	.	.	.	.
16FLL	.	.	.	.	.	.	4r	.	4r	.	.	.	.	.	.	.	.	.	.	.	.	.
16E-X	.	.	.	.	.	.	.	.	.	.	.	.	.	.	.	.	.	.	.	.	.	.
16D	.	.	.	.	.	.	.	.	.	.	.	.	.	.	.	.	.	.	.	.	.	.
16CJJ	.	.	.	.	.	.	.	.	.	.	.	.	.	.	.	.	.	.	.	.	.	.
!	!	!	!	!	!	!	!	!	!LO:LB:g=original	!	!	!	!	!	!	!	!	!	!	!	!	!
=21	=21	=21	=21	=21	=21	=21	=21	=21	=21	=21	=21	=21	=21	=21	=21	=21	=21	=21	=21	=21	=21	=21
8.B-`L	.	.	8.B-	be-	4r	.	4r	.	4r	.	4r	.	4r	.	4r	.	4r	.	4r	.	4r	.
16A`Jk	.	.	16A	-ne-	.	.	.	.	.	.	.	.	.	.	.	.	.	.	.	.	.	.
8B-`L\	.	.	8B-	-dic-	8r	.	8r	.	8r	.	8r	.	8r	.	8.r	.	8.r	.	8r	.	8r	.
8BB-`J/	.	.	8BB-	-tus	16r	.	16r	.	16r	.	16r	.	16r	.	.	.	.	.	16r	.	16r	.
!	!	!	!	!	!	!	!	!	!	!	!	!	!LO:N:vis=8	!	!	!	!	!	!	!	!	!
.	.	.	.	.	16B-	qui	16f	qui	16dd	qui	16f	.	16dd	.	16f	.	16dd	.	16f	.	16dd	.
!	!	!	!	!	!	!	!LO:LB:g=original	!	!	!	!	!	!	!	!	!	!	!	!	!	!	!
=22	=22	=22	=22	=22	=22	=22	=22	=22	=22	=22	=22	=22	=22	=22	=22	=22	=22	=22	=22	=22	=22	=22
8FL	6 4	.	2r	.	8B-L\	ve-	8fL	ve-	16ddLL	ve-	8fL	.	8ddL	.	4f	.	(>8ddL	.	(<8fL	.	(>8ddL	.
.	.	.	.	.	.	.	.	.	16ee-	.	.	.	.	.	.	.	.	.	.	.	.	.
8FJ	5 3	.	.	.	8FJ/	.	8e-J	.	16cc	.	8e-	.	8cc	.	.	.	8cc)	.	8e-J)	.	8cc)	.
.	.	.	.	.	.	.	.	.	16ddJJ	.	.	.	.	.	.	.	.	.	.	.	.	.
16B-LL\	.	.	.	.	8B-	-nit	8d	-nit	8b-	-nit	8dJ	.	8b-J	.	8d	.	8b-`J	.	8d`	.	8b-`J	.
16BB-/	.	.	.	.	.	.	.	.	.	.	.	.	.	.	.	.	.	.	.	.	.	.
16D/	.	.	.	.	8r	.	8r	.	8r	.	8r	.	8r	.	8r	.	8r	.	8r	.	8r	.
16FJJ/	.	.	.	.	.	.	.	.	.	.	.	.	.	.	.	.	.	.	.	.	.	.
=23	=23	=23	=23	=23	=23	=23	=23	=23	=23	=23	=23	=23	=23	=23	=23	=23	=23	=23	=23	=23	=23	=23
8.B-`L	.	.	8.B-	be-	4r	.	4r	.	4r	.	4r	.	4r	.	4r	.	4r	.	4r	.	4r	.
16A`Jk	.	.	16A	-ne-	.	.	.	.	.	.	.	.	.	.	.	.	.	.	.	.	.	.
8B-`L\	.	.	8B-	-dic-	8r	.	8r	.	8r	.	8r	.	8r	.	8.r	.	8.r	.	8r	.	8r	.
8BB-`J/	.	.	8BB-	-tus	16r	.	16r	.	16r	.	16r	.	16r	.	.	.	.	.	16r	.	16r	.
!	!	!	!	!	!	!	!	!	!	!	!	!	!	!	!	!	!LO:N:vis=8	!	!	!	!	!
.	.	.	.	.	16B-	qui	16dd	qui	16ff	qui	16dd	.	16ff	.	16dd	.	16ff	.	16dd	.	16ff	.
!	!	!	!	!	!	!	!	!	!	!	!LO:LB:g=original	!	!	!	!LO:LB:g=original	!	!LO:LB:g=original	!	!	!	!	!
=24	=24	=24	=24	=24	=24	=24	=24	=24	=24	=24	=24	=24	=24	=24	=24	=24	=24	=24	=24	=24	=24	=24
8FL	8 6	.	2r	.	8B-L	ve-	8ddL	ve-	16ffLL	ve-	8ddL	.	8ffL	.	8ddL	.	8ffL	.	(>8ddL	.	(>8ffL	.
.	.	.	.	.	.	.	.	.	16gg	.	.	.	.	.	.	.	.	.	.	.	.	.
8F	7 5	.	.	.	8AJ	.	8ccJ	.	16ee-	.	8cc	.	8ee-	.	8cc	.	8ee-	.	8cc)	.	8ee-)	.
.	.	.	.	.	.	.	.	.	16ffJJ	.	.	.	.	.	.	.	.	.	.	.	.	.
8B-	.	.	.	.	8B-	-nit	8b-	-nit	8dd	-nit	8b-J	.	8ddJ	.	8b-J	.	8ddJ	.	8b-`J	.	8dd`J	.
8B-J	.	.	.	.	8r	.	8r	.	8b-	qui	8r	.	8r	.	8r	.	8r	.	8r	.	8r	.
!LO:LB:g=original	!	!	!LO:PB:g=original	!	!LO:LB:g=original	!	!	!	!	!	!	!	!	!	!	!	!	!	!	!	!	!
=25	=25	=25	=25	=25	=25	=25	=25	=25	=25	=25	=25	=25	=25	=25	=25	=25	=25	=25	=25	=25	=25	=25
8E-L	.	.	4r	.	4G	No-	4b-	no-	8.ee-L	ve-	4r	.	4r	.	2r	.	2r	.	2r	.	2r	.
8E-	.	.	.	.	.	.	.	.	.	.	.	.	.	.	.	.	.	.	.	.	.	.
.	.	.	.	.	.	.	.	.	16ffJk	.	.	.	.	.	.	.	.	.	.	.	.	.
8D	6	.	8r	.	8e-	-mi-	8b-	-mi-	8gg	-nit	8r	.	8r	.	.	.	.	.	.	.	.	.
8DJ	.	.	8B-	qui	8d	-ne	8b-	-ne	8ff	in	8dd	.	8ff	.	.	.	.	.	.	.	.	.
!	!	!	!	!	!	!	!	!	!LO:LB:g=original	!	!	!	!	!	!	!	!	!	!	!	!	!
=26	=26	=26	=26	=26	=26	=26	=26	=26	=26	=26	=26	=26	=26	=26	=26	=26	=26	=26	=26	=26	=26	=26
8r	.	.	4B-	ve-	4d	No-	8b-	no-	4ff	no-	4dd	.	4ff	.	2r	.	2r	.	2r	.	2r	.
8B-L	.	.	.	.	.	.	8f	-mi-	.	.	.	.	.	.	.	.	.	.	.	.	.	.
8A	6 5	.	8A	-nit	8c	-mi-	8f	-ne	8ee-	-mi-	8ccL	.	8ee-L	.	.	.	.	.	.	.	.	.
8B-J	.	.	8B-	in	8B-	-ne	8f	in	8dd	-ne	8b-J	.	8ddJ	.	.	.	.	.	.	.	.	.
!	!	!	!	!	!	!	!LO:LB:g=original	!	!	!	!	!	!	!	!	!	!	!	!	!	!	!
=27	=27	=27	=27	=27	=27	=27	=27	=27	=27	=27	=27	=27	=27	=27	=27	=27	=27	=27	=27	=27	=27	=27
8E-L	6	.	8E-	no-	8c	No-	8g	no-	16ccLL	Do-	8gL	.	8ccL	.	2r	.	2r	.	2r	.	2r	.
.	.	.	.	.	.	.	.	.	16ggJJ	.	.	.	.	.	.	.	.	.	.	.	.	.
8E-	.	.	16E-	-mi-	16c	-mi-	16g	-mi-	16ffLL	.	16r	.	16r	.	.	.	.	.	.	.	.	.
.	.	.	16E-	-ne	16c	-ne	16g	-ne	16ee-JJ	.	16gJk	.	16ee-Jk	.	.	.	.	.	.	.	.	.
8F	6 4	.	8F	Do-	8B-	Do-	8f	Do-	16ddLL	.	(<16fLL	.	16ddLL	.	.	.	.	.	.	.	.	.
.	.	.	.	.	.	.	.	.	16ccJJ	.	16e-	.	16cc	.	.	.	.	.	.	.	.	.
8FJ	5 3	.	8F	-mi-	8A	-mi-	8f	-mi-	16b-LL	-mi-	16d	.	16b-	.	.	.	.	.	.	.	.	.
.	.	.	.	.	.	.	.	.	16ccJJ	.	16e-JJ)	.	16ccJJ	.	.	.	.	.	.	.	.	.
=28	=28	=28	=28	=28	=28	=28	=28	=28	=28	=28	=28	=28	=28	=28	=28	=28	=28	=28	=28	=28	=28	=28
!	!	!	!	!	!	!	!	!	!LO:TX:a:t=V:O.	!	!	!	!LO:TX:b:t=Volti Subito Osanna.	!	!	!	!	!	!	!	!	!
*2\right	*	*	*	*	*2\right	*	*2\right	*	*2\right	*	*	*	*2\right	*	*	*	*	*	*	*	*	*
2B-	.	.	4BB-	-ni.	2B-	-ni.	2f	-ni.	2b-	-ni.	2d	.	2b-	.	2r	.	2r	.	2r	.	2r	.
.	.	.	4r	.	.	.	.	.	.	.	.	.	.	.	.	.	.	.	.	.	.	.
==	==	==	==	==	==	==	==	==	==	==	==	==	==	==	==	==	==	==	==	==	==	==
*-	*-	*-	*-	*-	*-	*-	*-	*-	*-	*-	*-	*-	*-	*-	*-	*-	*-	*-	*-	*-	*-	*-
!!!system-decoration: s1,s2,s3,s4,s5,s6,s7,s8,s9,s10,s11
!!!RDF**kern: > = above
!!!RDF**kern: < = below
!!!ENC: Anna Matuszewska
!!!END: 2020-03-27
